X: 14034
T: Frankie's
R: reel
M: 4/4
K: Dmajor
de|:fdde fdge|fddB =c2de|fdde fdge|1 fdec d2de:|2 fdec defg||
|:~a3f g2fg|abaf g2fg|~a3f g2ag|1 fdec defg:|2 fdec d2de||

